svgs/duotone/file-export.svg

<svg xmlns="http://www.w3.org/2000/svg" viewBox="0 0 576 512"><!-- Font Awesome Pro 6.0.0-alpha2 by @fontawesome - https://fontawesome.com License - https://fontawesome.com/license (Commercial License) --><defs><style>.fa-secondary{opacity:.4}</style></defs><path d="M384 336V464C384 490.508 362.51 512 336 512H48C21.49 512 0 490.508 0 464V48C0 21.492 21.49 0 48 0H256V128H384V288H216C202.75 288 192 298.75 192 312S202.75 336 216 336H384Z" class="fa-secondary"/><path d="M256 0V128H384L256 0ZM568.969 295.031L488.969 215.031C479.594 205.656 464.406 205.656 455.031 215.031S445.656 239.594 455.031 248.969L494.062 288H216C202.75 288 192 298.75 192 312S202.75 336 216 336H494.062L455.031 375.031C450.344 379.719 448 385.844 448 392S450.344 404.281 455.031 408.969C464.406 418.344 479.594 418.344 488.969 408.969L568.969 328.969C578.344 319.594 578.344 304.406 568.969 295.031Z" class="fa-primary"/></svg>

<svg xmlns="http://www.w3.org/2000/svg" viewBox="0 0 576 512"><!--! Font Awesome Pro 6.0.0-alpha3 by @fontawesome - https://fontawesome.com License - https://fontawesome.com/license (Commercial License) --><defs><style>.fa-secondary{opacity:.4}</style></defs><path class="fa-primary" d="M256 0v128h128L256 0zM568.1 295l-80-80c-9.375-9.375-24.56-9.375-33.94 0s-9.375 24.56 0 33.94L494.1 288H216C202.8 288 192 298.8 192 312s10.75 24 24 24h278.1l-39.03 39.03C450.3 379.7 448 385.8 448 392s2.344 12.28 7.031 16.97c9.375 9.375 24.56 9.375 33.94 0l80-80C578.3 319.6 578.3 304.4 568.1 295z"/><path class="fa-secondary" d="M384 336v128c0 26.51-21.49 48-48 48h-288C21.49 512 0 490.5 0 464v-416C0 21.49 21.49 0 48 0H256v128h128v160H216C202.8 288 192 298.8 192 312s10.75 24 24 24H384z"/></svg>
